assets/images/printing.svg

<svg height="800" viewBox="0 0 1000 1000" width="800" xmlns="http://www.w3.org/2000/svg"><g fill="none" stroke="#020202" stroke-linecap="round" stroke-miterlimit="10" stroke-width="22"><path d="m683.86 302.94h47.76a72.79 72.79 0 0 1 72.57 72.57v249a72.79 72.79 0 0 1 -72.57 72.57h-47.76"/><path d="m316.14 697.06h-47.76a72.79 72.79 0 0 1 -72.57-72.57v-249a72.79 72.79 0 0 1 72.57-72.57h47.76"/><path d="m284.13 380.08v30.08h431.74v-30.08"/><path d="m284.13 619.92h431.74"/><path d="m317.07 410.16v-162.16a35.26 35.26 0 0 1 35.15-35.15h295.56a35.26 35.26 0 0 1 35.15 35.15v162.16"/><path d="m682.93 619.92v132.08a35.26 35.26 0 0 1 -35.15 35.15h-295.56a35.26 35.26 0 0 1 -35.15-35.15v-132.08"/><path d="m632.71 702.67h-60.47"/><path d="m500.93 702.67h-131.77"/></g><circle cx="572.23" cy="473.4" fill="#020202" r="17.9"/><circle cx="632.71" cy="473.4" fill="#020202" r="17.9"/><circle cx="693.18" cy="473.4" fill="#020202" r="17.9"/></svg>

<?xml version="1.0" ?><!-- Uploaded to: SVG Repo, www.svgrepo.com, Generator: SVG Repo Mixer Tools -->
<svg width="800px" height="800px" viewBox="0 0 1000 1000" data-name="Layer 2" id="Layer_2" xmlns="http://www.w3.org/2000/svg"><defs><style>.cls-1{fill:none;stroke:#020202;stroke-linecap:round;stroke-miterlimit:10;stroke-width:22px;}.cls-2{fill:#020202;}</style></defs><path class="cls-1" d="M683.86,302.94h47.76a72.79,72.79,0,0,1,72.57,72.57v249a72.79,72.79,0,0,1-72.57,72.57H683.86"/><path class="cls-1" d="M316.14,697.06H268.38a72.79,72.79,0,0,1-72.57-72.57v-249a72.79,72.79,0,0,1,72.57-72.57h47.76"/><polyline class="cls-1" points="284.13 380.08 284.13 410.16 715.87 410.16 715.87 380.08"/><line class="cls-1" x1="284.13" x2="715.87" y1="619.92" y2="619.92"/><path class="cls-1" d="M317.07,410.16V248a35.26,35.26,0,0,1,35.15-35.15H647.78A35.26,35.26,0,0,1,682.93,248V410.16"/><path class="cls-1" d="M682.93,619.92V752a35.26,35.26,0,0,1-35.15,35.15H352.22A35.26,35.26,0,0,1,317.07,752V619.92"/><line class="cls-1" x1="632.71" x2="572.24" y1="702.67" y2="702.67"/><line class="cls-1" x1="500.93" x2="369.16" y1="702.67" y2="702.67"/><circle class="cls-2" cx="572.23" cy="473.4" r="17.9"/><circle class="cls-2" cx="632.71" cy="473.4" r="17.9"/><circle class="cls-2" cx="693.18" cy="473.4" r="17.9"/></svg>
